src/assets/inicio/projetos-icon.svg

<svg xmlns="http://www.w3.org/2000/svg" width="24" height="24" fill="none"><path fill="#7B2CBF" d="M0 0h24v24H0z"/><path fill="#000" d="m2.394 15.759 9.09 5.109a.995.995 0 0 0 .492.132.996.996 0 0 0 .484-.127l9.155-5.113a.752.752 0 0 0 .385-.656.751.751 0 0 0-1.116-.654s-7.052 3.958-8.539 4.77c-.211.115-.444.161-.722.006l-8.494-4.775a.75.75 0 0 0-.735 1.308Zm0-3.113 9.09 5.109a.995.995 0 0 0 .492.132.996.996 0 0 0 .484-.127l9.155-5.113a.752.752 0 0 0 .385-.656.751.751 0 0 0-1.116-.654s-7.052 3.958-8.539 4.77c-.211.115-.444.161-.722.006l-8.494-4.775a.75.75 0 0 0-.735 1.308Zm10.271-9.455A1.488 1.488 0 0 0 11.973 3a1.4 1.4 0 0 0-.675.191L2.414 8.196C2.138 8.379 2 8.64 2 8.894c0 .256.139.505.414.664l8.884 5.006c.221.133.447.203.678.203.223 0 .452-.065.689-.203l8.884-5.006c.295-.166.451-.421.451-.68 0-.25-.145-.503-.451-.682l-8.884-5.005Z"/></svg>

<svg width="24" height="24" viewBox="0 0 24 24" fill="none" xmlns="http://www.w3.org/2000/svg">
<rect width="24" height="24" fill="#7B2CBF"/>
<path d="M2.394 15.759C2.394 15.759 9.948 20.005 11.484 20.868C11.649 20.961 11.817 21 11.976 21C12.154 21 12.32 20.951 12.46 20.873C14.006 20.01 21.615 15.76 21.615 15.76C21.861 15.622 22 15.367 22 15.104C22 14.538 21.386 14.17 20.884 14.45C20.884 14.45 13.832 18.408 12.345 19.22C12.134 19.335 11.901 19.381 11.623 19.226C9.974 18.298 3.129 14.451 3.129 14.451C2.627 14.169 2.012 14.536 2.012 15.104C2.012 15.366 2.149 15.621 2.394 15.759ZM2.394 12.646C2.394 12.646 9.948 16.892 11.484 17.755C11.649 17.848 11.817 17.887 11.976 17.887C12.154 17.887 12.32 17.838 12.46 17.76C14.006 16.897 21.615 12.647 21.615 12.647C21.861 12.509 22 12.254 22 11.991C22 11.425 21.386 11.057 20.884 11.337C20.884 11.337 13.832 15.295 12.345 16.107C12.134 16.222 11.901 16.268 11.623 16.113C9.974 15.185 3.129 11.338 3.129 11.338C2.627 11.056 2.012 11.423 2.012 11.991C2.012 12.253 2.149 12.508 2.394 12.646ZM12.665 3.191C12.419 3.063 12.194 3 11.973 3C11.75 3 11.53 3.065 11.298 3.191L2.414 8.196C2.138 8.379 2 8.64 2 8.894C2 9.15 2.139 9.399 2.414 9.558L11.298 14.564C11.519 14.697 11.745 14.767 11.976 14.767C12.199 14.767 12.428 14.702 12.665 14.564L21.549 9.558C21.844 9.392 22 9.137 22 8.878C22 8.628 21.855 8.375 21.549 8.196L12.665 3.191Z" fill="black"/>
</svg>
